X:12371
T:Old Road to Garry, The
C:Paddy O'Brien (Nenagh)
R:reel
H:Also in D, #363
Z:id:hn-reel-595
M:C|
K:C
cE~E2 GAce|dcAG AdcA|GE~E2 GAce|fagf eccB|
cE~E2 GAce|dcAG Adde|~f3d eage|d2cd ecc2||
eg~g2 ecgc|Addc defa|gece gceg|fagf ec~c2|
eg~g2 ecgc|Addc defg|aege decA|GAcd ec~c2||
cBcG AGEG|Addc dfed|cE~E2 GAce|fagf efed|
cBcG AGEG|Addc BGAB|cege fage|d2cd ec~c2||
eg~g2 eceg|aege dcAd|eg~g2 edcA|GAcd ec~c2|
eg~g2 eceg|aege dcde|~f3d eage|d2cd ec~c2||
